X: 102026B
T: Jack's 32
C: 
L: 1/8
M: 4/4
R: reel
Q: 1/4=180
K: G 
G3B d2 Bd|gbag edBc|d2 dB edBG|FDFA cAFA|
BcdB e^def|gbag edBG|DG ~G2 dGBG|DFAd BGG2 :|
g3d e2dc|Bcdc BG ~G2|Ad ~d2 ^cege|fde^c d=cBA|
G2BG cAFA|BGBd g2 ge|d2 dB edBG|DFAd BGG2 :|
